apps/www/public/images/logos/publicity/happyteams.svg

<svg width="160" height="60" viewBox="0 0 160 60" fill="none" xmlns="http://www.w3.org/2000/svg">
<path d="M57.0525 37.301V31.9006H52.746V37.301H50.4351V25.2245H52.746V30.0655H57.0525V25.2245H59.3809V37.301H57.0525Z" fill="#7E7E7E"/>
<path d="M68.9722 34.8542C68.9722 35.2154 69.0247 35.4834 69.1298 35.6581C69.2465 35.8213 69.4274 35.9494 69.6725 36.0426L69.1998 37.5282C68.6746 37.4816 68.2428 37.3534 67.9043 37.1437C67.5775 36.934 67.3266 36.6136 67.1515 36.1825C66.8364 36.6485 66.4396 36.998 65.9611 37.2311C65.4943 37.4524 64.9691 37.5631 64.3855 37.5631C63.4635 37.5631 62.7341 37.301 62.1972 36.7767C61.6604 36.2524 61.3919 35.5649 61.3919 34.7144C61.3919 33.7124 61.7537 32.9492 62.4773 32.4249C63.2126 31.889 64.2572 31.621 65.611 31.621H66.7664V31.0967C66.7664 30.5025 66.6264 30.0889 66.3463 29.8558C66.0778 29.6111 65.6402 29.4888 65.0333 29.4888C64.3564 29.4888 63.5394 29.6519 62.5824 29.9782L62.0572 28.4577C63.2126 28.0149 64.333 27.7936 65.4184 27.7936C67.7876 27.7936 68.9722 28.8538 68.9722 30.9743V34.8542ZM64.9808 35.9378C65.7394 35.9378 66.3346 35.5591 66.7664 34.8018V32.9318H65.8386C64.3914 32.9318 63.6678 33.4677 63.6678 34.5396C63.6678 34.9824 63.7786 35.3261 64.0004 35.5708C64.2221 35.8154 64.5489 35.9378 64.9808 35.9378Z" fill="#7E7E7E"/>
<path d="M76.4807 27.7936C77.6478 27.7936 78.5114 28.2188 79.0716 29.0694C79.6319 29.9199 79.9119 31.1142 79.9119 32.6521C79.9119 33.6075 79.7661 34.4581 79.4743 35.2038C79.1942 35.9378 78.774 36.5145 78.2138 36.934C77.6653 37.3534 77.0117 37.5631 76.2531 37.5631C75.2727 37.5631 74.4966 37.2252 73.9248 36.5495V40.8663L71.6839 41.1109V28.0557H73.6446L73.7672 29.1917C74.129 28.7257 74.5433 28.3761 75.0102 28.1431C75.477 27.9101 75.9672 27.7936 76.4807 27.7936ZM75.6229 35.8504C76.9184 35.8504 77.5661 34.7901 77.5661 32.6696C77.5661 31.5394 77.4202 30.7238 77.1284 30.2228C76.8366 29.7218 76.399 29.4713 75.8154 29.4713C75.442 29.4713 75.0919 29.5878 74.7651 29.8209C74.4383 30.0422 74.1582 30.3452 73.9248 30.7297V34.8892C74.3566 35.53 74.9226 35.8504 75.6229 35.8504Z" fill="#7E7E7E"/>
<path d="M86.9093 27.7936C88.0764 27.7936 88.9401 28.2188 89.5003 29.0694C90.0605 29.9199 90.3406 31.1142 90.3406 32.6521C90.3406 33.6075 90.1947 34.4581 89.9029 35.2038C89.6228 35.9378 89.2027 36.5145 88.6425 36.934C88.0939 37.3534 87.4404 37.5631 86.6817 37.5631C85.7014 37.5631 84.9253 37.2252 84.3534 36.5495V40.8663L82.1126 41.1109V28.0557H84.0733L84.1958 29.1917C84.5576 28.7257 84.9719 28.3761 85.4388 28.1431C85.9056 27.9101 86.3958 27.7936 86.9093 27.7936ZM86.0515 35.8504C87.347 35.8504 87.9947 34.7901 87.9947 32.6696C87.9947 31.5394 87.8488 30.7238 87.5571 30.2228C87.2653 29.7218 86.8276 29.4713 86.2441 29.4713C85.8706 29.4713 85.5205 29.5878 85.1937 29.8209C84.8669 30.0422 84.5868 30.3452 84.3534 30.7297V34.8892C84.7852 35.53 85.3512 35.8504 86.0515 35.8504Z" fill="#7E7E7E"/>
<path d="M96.9202 37.3359C96.5468 38.4778 95.9807 39.3632 95.2221 39.9924C94.4635 40.6332 93.4248 41.0061 92.106 41.1109L91.8784 39.4856C92.4853 39.3924 92.9696 39.2584 93.3314 39.0836C93.7049 38.9205 94.0025 38.6991 94.2243 38.4195C94.446 38.1399 94.6503 37.767 94.837 37.301H94.0667L91.1256 28.0557H93.5065L95.5197 35.8154L97.6205 28.0557H99.9314L96.9202 37.3359Z" fill="#7E7E7E"/>
<path d="M109.137 25.2245L108.892 27.0595H105.741V37.301H103.413V27.0595H100.156V25.2245H109.137Z" fill="#7E7E7E"/>
<path d="M117.218 32.4599C117.218 32.5764 117.2 32.8793 117.165 33.3687H111.353C111.423 34.2658 111.657 34.9066 112.054 35.2911C112.45 35.6756 112.976 35.8679 113.629 35.8679C114.038 35.8679 114.423 35.8038 114.785 35.6756C115.146 35.5358 115.532 35.3261 115.94 35.0465L116.868 36.3223C115.841 37.1495 114.697 37.5631 113.437 37.5631C112.024 37.5631 110.933 37.132 110.163 36.2698C109.404 35.4076 109.025 34.2309 109.025 32.7395C109.025 31.7958 109.188 30.951 109.515 30.2054C109.842 29.448 110.315 28.8596 110.933 28.4402C111.552 28.0091 112.287 27.7936 113.139 27.7936C114.434 27.7936 115.438 28.2072 116.15 29.0344C116.862 29.85 117.218 30.9918 117.218 32.4599ZM114.995 31.8132C114.995 30.1937 114.394 29.384 113.192 29.384C112.643 29.384 112.211 29.5878 111.896 29.9956C111.593 30.3918 111.412 31.0326 111.353 31.9181H114.995V31.8132Z" fill="#7E7E7E"/>
<path d="M125.902 34.8542C125.902 35.2154 125.955 35.4834 126.06 35.6581C126.177 35.8213 126.357 35.9494 126.603 36.0426L126.13 37.5282C125.605 37.4816 125.173 37.3534 124.834 37.1437C124.508 36.934 124.257 36.6136 124.082 36.1825C123.766 36.6485 123.37 36.998 122.891 37.2311C122.424 37.4524 121.899 37.5631 121.316 37.5631C120.394 37.5631 119.664 37.301 119.127 36.7767C118.59 36.2524 118.322 35.5649 118.322 34.7144C118.322 33.7124 118.684 32.9492 119.407 32.4249C120.143 31.889 121.187 31.621 122.541 31.621H123.696V31.0967C123.696 30.5025 123.556 30.0889 123.276 29.8558C123.008 29.6111 122.57 29.4888 121.963 29.4888C121.286 29.4888 120.469 29.6519 119.512 29.9782L118.987 28.4577C120.143 28.0149 121.263 27.7936 122.348 27.7936C124.718 27.7936 125.902 28.8538 125.902 30.9743V34.8542ZM121.911 35.9378C122.669 35.9378 123.265 35.5591 123.696 34.8018V32.9318H122.769C121.321 32.9318 120.598 33.4677 120.598 34.5396C120.598 34.9824 120.709 35.3261 120.93 35.5708C121.152 35.8154 121.479 35.9378 121.911 35.9378Z" fill="#7E7E7E"/>
<path d="M138.435 27.7936C139.182 27.7936 139.777 28.0499 140.221 28.5625C140.664 29.0635 140.886 29.7451 140.886 30.6073V37.301H138.645V30.9569C138.645 29.9665 138.307 29.4713 137.63 29.4713C137.268 29.4713 136.953 29.5878 136.684 29.8209C136.428 30.0422 136.159 30.3918 135.879 30.8695V37.301H133.638V30.9569C133.638 29.9665 133.3 29.4713 132.623 29.4713C132.249 29.4713 131.929 29.5878 131.66 29.8209C131.403 30.0422 131.135 30.3918 130.855 30.8695V37.301H128.614V28.0557H130.557L130.732 29.2616C131.433 28.2829 132.325 27.7936 133.411 27.7936C133.948 27.7936 134.409 27.9334 134.794 28.213C135.191 28.481 135.476 28.8596 135.652 29.349C136.025 28.848 136.434 28.4635 136.877 28.1955C137.332 27.9275 137.852 27.7936 138.435 27.7936Z" fill="#7E7E7E"/>
<path d="M146.411 27.7936C147.66 27.7936 148.757 28.1606 149.702 28.8946L148.827 30.2054C148.033 29.7044 147.257 29.4539 146.499 29.4539C146.055 29.4539 145.711 29.5412 145.466 29.716C145.221 29.8791 145.098 30.1005 145.098 30.3801C145.098 30.5899 145.151 30.7646 145.256 30.9044C145.361 31.0443 145.548 31.1782 145.816 31.3064C146.096 31.4229 146.505 31.5569 147.041 31.7084C148.045 31.9764 148.786 32.3317 149.265 32.7745C149.755 33.2172 150 33.8347 150 34.627C150 35.5475 149.627 36.2698 148.88 36.7941C148.133 37.3068 147.205 37.5631 146.096 37.5631C145.337 37.5631 144.643 37.4466 144.013 37.2136C143.394 36.9806 142.857 36.6602 142.402 36.2524L143.523 34.994C144.328 35.5999 145.168 35.9028 146.044 35.9028C146.545 35.9028 146.942 35.8038 147.234 35.6057C147.537 35.4076 147.689 35.1338 147.689 34.7843C147.689 34.5163 147.631 34.3066 147.514 34.1551C147.409 33.992 147.211 33.8522 146.919 33.7357C146.639 33.6075 146.195 33.4561 145.588 33.2813C144.643 33.025 143.949 32.6696 143.505 32.2152C143.062 31.7492 142.84 31.1724 142.84 30.485C142.84 29.9723 142.986 29.5121 143.278 29.1043C143.581 28.6965 144.001 28.3761 144.538 28.1431C145.087 27.9101 145.711 27.7936 146.411 27.7936Z" fill="#7E7E7E"/>
<path d="M41.1529 33.9628C41.3375 33.0034 41.4342 32.013 41.4342 31C41.4342 22.3576 34.3973 15.3516 25.7171 15.3516C17.0368 15.3516 10 22.3576 10 31C10 39.6425 17.0368 46.6485 25.7171 46.6485C27.3448 46.6485 28.9147 46.4022 30.3913 45.9449C30.0867 45.1238 29.8975 44.2468 29.8432 43.3335C28.5464 43.7634 27.159 43.9962 25.7171 43.9962C18.508 43.9962 12.6639 38.1776 12.6639 31C12.6639 23.8224 18.508 18.0038 25.7171 18.0038C32.9261 18.0038 38.7702 23.8224 38.7702 31C38.7702 31.9268 38.6728 32.8309 38.4876 33.7028C38.6365 33.6956 38.7864 33.6919 38.9372 33.6919C39.7014 33.6919 40.4436 33.7859 41.1529 33.9628Z" fill="#7E7E7E"/>
<path d="M39.0244 34.3637C34.3165 34.3637 30.4999 38.1636 30.4999 42.851C30.4999 43.8658 30.7527 44.9399 31.0069 45.7411C32.3198 44.3073 41.0156 34.601 41.0156 34.601C41.0156 34.601 39.6378 34.3637 39.0244 34.3637Z" fill="#7E7E7E"/>
<path fill-rule="evenodd" clip-rule="evenodd" d="M20.0522 29.8632C20.4328 29.8243 20.7729 30.0999 20.8119 30.4788C21.0498 32.789 23.1085 34.6386 25.6644 34.6386C28.2168 34.6386 30.2733 32.7942 30.516 30.4884C30.5558 30.1097 30.8965 29.8348 31.277 29.8744C31.6574 29.9141 31.9335 30.2534 31.8937 30.6321C31.5728 33.6814 28.8835 36.0178 25.6644 36.0178C22.441 36.0178 19.7486 33.6749 19.4339 30.6195C19.3949 30.2406 19.6717 29.902 20.0522 29.8632Z" fill="#7E7E7E"/>
<path fill-rule="evenodd" clip-rule="evenodd" d="M29.283 25.9607C28.6228 25.9607 28.088 26.5076 28.088 27.182C28.088 27.8571 28.6228 28.4039 29.283 28.4039C29.9432 28.4039 30.4773 27.8571 30.4773 27.182C30.4773 26.5076 29.9432 25.9607 29.283 25.9607Z" fill="#7E7E7E"/>
<path fill-rule="evenodd" clip-rule="evenodd" d="M22.0105 25.9607C21.351 25.9607 20.8155 26.5076 20.8155 27.182C20.8155 27.8571 21.351 28.4039 22.0105 28.4039C22.6701 28.4039 23.2055 27.8571 23.2055 27.182C23.2055 26.5076 22.6701 25.9607 22.0105 25.9607Z" fill="#7E7E7E"/>
</svg>

<svg xmlns="http://www.w3.org/2000/svg" width="160" height="60" fill="none" viewBox="0 0 160 60"><path fill="#7e7e7e" d="M57.053 37.301v-5.4h-4.307v5.4h-2.31V25.224h2.31v4.842h4.307v-4.841h2.328V37.3zM68.972 34.854q0 .542.158.804.175.244.543.385l-.473 1.485q-.787-.07-1.296-.384-.49-.315-.752-.962a3 3 0 0 1-1.19 1.05 3.6 3.6 0 0 1-1.577.331q-1.382 0-2.188-.786-.805-.787-.805-2.063 0-1.503 1.085-2.29 1.103-.803 3.134-.803h1.155v-.524q0-.891-.42-1.241-.402-.367-1.313-.367-1.016 0-2.45.49l-.526-1.521q1.734-.664 3.361-.664 3.555 0 3.554 3.18zm-3.991 1.084q1.138 0 1.785-1.136v-1.87h-.927q-2.171 0-2.171 1.608 0 .663.332 1.03.333.368.98.368M76.48 27.794q1.751 0 2.592 1.275.84 1.276.84 3.583 0 1.434-.438 2.552-.42 1.1-1.26 1.73-.823.63-1.96.63-1.471 0-2.33-1.014v4.316l-2.24.245V28.056h1.96l.123 1.136a3.6 3.6 0 0 1 1.243-1.049q.7-.35 1.47-.35m-.857 8.056q1.943 0 1.943-3.18 0-1.695-.438-2.447-.437-.752-1.313-.752-.56 0-1.05.35a2.9 2.9 0 0 0-.84.909v4.16q.648.96 1.698.96M86.91 27.794q1.75 0 2.59 1.275.84 1.276.84 3.583 0 1.434-.437 2.552-.42 1.1-1.26 1.73-.824.63-1.961.63-1.47 0-2.329-1.014v4.316l-2.24.245V28.056h1.96l.123 1.136a3.6 3.6 0 0 1 1.243-1.049q.7-.35 1.47-.35m-.858 8.056q1.943 0 1.943-3.18 0-1.695-.438-2.447t-1.313-.752q-.56 0-1.05.35a2.9 2.9 0 0 0-.84.909v4.16q.647.96 1.698.96M96.92 37.336q-.56 1.713-1.698 2.656-1.137.962-3.116 1.119l-.228-1.625q.911-.141 1.453-.402.56-.245.893-.665t.613-1.118h-.77l-2.941-9.245h2.38l2.014 7.76 2.1-7.76h2.311zM109.137 25.225l-.245 1.834h-3.151v10.242h-2.328V27.059h-3.257v-1.835zM117.218 32.46q0 .175-.053.909h-5.812q.105 1.346.701 1.922.595.577 1.575.577.613 0 1.156-.192.542-.21 1.155-.63l.928 1.276q-1.54 1.242-3.431 1.241-2.12 0-3.274-1.293-1.138-1.294-1.138-3.53 0-1.416.49-2.535.49-1.135 1.418-1.765.928-.646 2.206-.646 1.943 0 3.011 1.24 1.068 1.224 1.068 3.426m-2.223-.647q0-2.43-1.803-2.429-.824 0-1.296.612-.455.594-.543 1.922h3.642zM125.902 34.854q0 .542.158.804.175.244.543.385l-.473 1.485q-.788-.07-1.296-.384-.49-.315-.752-.962a3 3 0 0 1-1.191 1.05 3.6 3.6 0 0 1-1.575.331q-1.383 0-2.189-.786-.805-.787-.805-2.063 0-1.503 1.085-2.29 1.103-.803 3.134-.803h1.155v-.524q0-.891-.42-1.241-.402-.367-1.313-.367-1.016 0-2.451.49l-.525-1.521q1.734-.664 3.361-.664 3.555 0 3.554 3.18zm-3.991 1.084q1.138 0 1.785-1.136v-1.87h-.927q-2.172 0-2.171 1.608 0 .663.332 1.03.333.368.981.368M138.435 27.794q1.12 0 1.786.768.665.753.665 2.045v6.694h-2.241v-6.344q0-1.486-1.015-1.486-.543 0-.946.35-.385.331-.805 1.048v6.432h-2.241v-6.344q0-1.486-1.015-1.486a1.42 1.42 0 0 0-.963.35q-.385.331-.805 1.048v6.432h-2.241v-9.245h1.943l.175 1.206q1.05-1.469 2.679-1.468.805 0 1.383.419.595.402.858 1.136.56-.752 1.225-1.154.683-.401 1.558-.401M146.411 27.794q1.874 0 3.291 1.1l-.875 1.311q-1.191-.75-2.328-.751-.666 0-1.033.262a.76.76 0 0 0-.368.664q0 .315.158.524t.56.402q.42.175 1.225.402 1.506.402 2.224 1.067.735.663.735 1.852 0 1.38-1.12 2.167-1.12.77-2.784.77a6 6 0 0 1-2.083-.35 5 5 0 0 1-1.611-.962l1.121-1.258q1.207.909 2.521.909.752 0 1.19-.297.455-.297.455-.822 0-.401-.175-.629-.157-.244-.595-.42-.42-.191-1.331-.454-1.417-.384-2.083-1.066-.665-.7-.665-1.73 0-.77.438-1.38.454-.613 1.26-.962.823-.35 1.873-.35M41.153 33.963c.184-.96.281-1.95.281-2.963 0-8.642-7.037-15.648-15.717-15.648S10 22.358 10 31s7.037 15.648 15.717 15.648c1.628 0 3.198-.246 4.674-.703a9 9 0 0 1-.548-2.611 13.1 13.1 0 0 1-4.126.662c-7.209 0-13.053-5.818-13.053-12.996s5.844-12.996 13.053-12.996S38.77 23.822 38.77 31c0 .927-.097 1.83-.282 2.703q.222-.01.45-.011c.763 0 1.506.094 2.215.27"/><path fill="#7e7e7e" d="M39.024 34.364c-4.708 0-8.524 3.8-8.524 8.487 0 1.015.253 2.089.507 2.89 1.313-1.434 10.009-11.14 10.009-11.14s-1.378-.237-1.992-.237"/><path fill="#7e7e7e" fill-rule="evenodd" d="M20.052 29.863c.38-.039.72.237.76.616.238 2.31 2.296 4.16 4.852 4.16 2.553 0 4.61-1.845 4.852-4.15a.692.692 0 0 1 1.378.143c-.321 3.05-3.01 5.386-6.23 5.386-3.223 0-5.915-2.343-6.23-5.399a.69.69 0 0 1 .618-.756M29.283 25.96c-.66 0-1.195.548-1.195 1.222 0 .675.535 1.222 1.195 1.222s1.194-.547 1.194-1.222-.534-1.221-1.194-1.221M22.01 25.96c-.659 0-1.195.548-1.195 1.222 0 .675.536 1.222 1.195 1.222.66 0 1.195-.547 1.195-1.222s-.535-1.221-1.194-1.221" clip-rule="evenodd"/></svg>
